X:10119
T:Maid of Skylight. JC.030
M:6/8
L:1/8
Q:90
S:John Clare,Poet,Helpston. (1793-1864)
R:Jig
O:England
A:Northamptonshire
N:
Z:P Headford
K:G
d/c/|Bcd gec|BBc d2d|c>Bc BGd|c>Bc B2B|!
c>dc cAF|d>ed dBG|ecd efg|dBG d2d|gdB gec|!
dBG c2c|Bdg dBG|A2AB2d|gfg dBG|A2AB2||
